img/awards-1.svg

<svg width="185" height="197" viewBox="0 0 185 197" fill="none" xmlns="http://www.w3.org/2000/svg">
<g clip-path="url(#clip0)">
<path d="M157.834 24.8386C121.213 -4.96836 72.0397 -11.1353 46.2498 24.1534C20.4598 59.4421 37.6531 82.0543 37.6531 82.0543C37.6531 82.0543 52.7832 100.555 45.2182 115.973C40.7479 125.052 16.5053 146.979 44.1866 177.299C71.8678 207.62 105.911 202.824 149.41 163.253C192.737 123.853 197.723 57.5577 157.834 24.8386ZM77.5416 171.475C71.352 173.531 60.3483 171.646 55.5341 161.539C53.6429 157.428 52.0955 149.206 60.0044 143.724C70.1485 136.529 81.668 144.238 84.7628 152.974C87.8576 161.711 83.9031 169.419 77.5416 171.475Z" fill="#F4BA45"/>
<path d="M65.6788 26.2091C65.6788 26.2091 65.3349 18.6717 73.5877 16.9586C81.8405 15.2456 88.7178 18.1578 91.2968 25.5238C93.8758 32.8899 88.7178 43.8534 82.0124 44.3673C75.307 44.8812 66.3665 34.0891 65.6788 26.2091Z" fill="#5FB1AF"/>
<path d="M114.851 32.5472C114.851 32.5472 116.055 22.7828 126.714 23.8107C134.451 24.4959 144.596 36.1446 144.939 42.4828C145.283 48.8211 132.904 55.6733 126.027 56.1872C118.978 56.5298 113.304 44.5385 114.851 32.5472Z" fill="#D62766"/>
<path d="M150.441 68.8638C150.441 68.8638 155.943 66.2942 161.272 74.1742C166.602 82.0542 167.634 89.7629 164.195 96.9577C160.757 103.981 152.504 109.977 146.486 105.009C140.469 100.041 147.002 89.0777 145.455 84.4525C143.907 79.6559 143.907 71.0907 150.441 68.8638Z" fill="#184F5B"/>
<path d="M132.044 131.561C132.044 131.561 133.935 122.482 141.329 121.968C148.55 121.454 157.318 136.015 154.911 140.812C152.504 145.608 140.641 152.974 133.248 153.488C125.855 153.831 122.76 141.154 132.044 131.561Z" fill="#1F1F20"/>
<path opacity="0.1" d="M112.788 73.8317C112.616 73.6604 112.616 73.4891 112.444 73.3178L112.272 73.1465C112.272 73.1465 112.272 73.1465 112.272 73.3178C111.756 72.8039 111.584 74.3456 109.693 76.4013C105.91 80.6839 98.8611 78.4569 90.6083 81.1978C82.1836 83.7674 81.6678 99.1847 81.6678 99.1847L73.243 105.523C73.243 105.523 32.323 126.251 5.15754 181.753C3.95401 184.323 6.70494 187.064 9.28394 185.865C20.9754 180.212 40.06 168.392 59.1445 144.752C73.0711 127.45 81.4958 114.26 81.4958 114.26C81.8397 113.574 88.0293 105.694 88.0293 105.694C88.0293 105.694 97.1418 107.579 106.598 98.1569C116.054 88.7352 113.991 76.23 112.788 73.8317Z" fill="#1F1F20"/>
<path d="M68.4296 99.5271C68.4296 99.5271 27.5095 120.255 0.344065 175.758C-0.859466 178.327 1.89146 181.068 4.47046 179.869C16.1619 174.216 35.2465 162.396 54.3311 138.756C68.2576 121.454 76.6824 108.264 76.6824 108.264L68.4296 99.5271Z" fill="#1F1F20"/>
<path d="M76.8545 93.0177C76.8545 93.0177 77.3703 77.6003 85.795 75.0307C94.2197 72.4612 101.269 74.6881 104.88 70.2342C107.115 67.6647 106.943 65.9516 107.802 67.6647C109.006 70.2342 111.069 82.5681 101.785 91.9899C92.3285 101.412 83.216 99.5273 83.216 99.5273L76.8545 93.0177Z" fill="#C57727"/>
<path d="M76.8544 93.0178L83.3879 99.5274C83.3879 99.5274 77.1983 107.407 76.8544 108.093L68.4297 99.5274L76.8544 93.0178Z" fill="#5FB1AF"/>
<path opacity="0.1" d="M83.2159 99.5271C83.2159 99.5271 92.3283 101.411 101.785 91.9897C111.241 82.568 109.178 70.234 107.802 67.6645L107.458 66.9792C107.458 66.9792 108.318 70.7479 105.051 76.5723C102.129 81.8827 89.5774 93.7027 80.1211 96.4436L83.2159 99.5271Z" fill="#1F1F20"/>
</g>
<defs>
<clipPath id="clip0">
<rect width="185" height="197" fill="white" transform="translate(0 -0.000488281)"/>
</clipPath>
</defs>
</svg>

<svg width="185" height="197" fill="none" xmlns="http://www.w3.org/2000/svg"><g clip-path="url(#clip0)"><path d="M157.834 24.839C121.213-4.968 72.04-11.135 46.25 24.153c-25.79 35.29-8.597 57.901-8.597 57.901s15.13 18.501 7.565 33.919c-4.47 9.079-28.713 31.006-1.031 61.326 27.68 30.321 61.724 25.525 105.223-14.046 43.327-39.4 48.313-105.695 8.424-138.414zM77.542 171.475c-6.19 2.056-17.194.171-22.008-9.936-1.891-4.111-3.438-12.333 4.47-17.815 10.145-7.195 21.664.514 24.759 9.25 3.095 8.737-.86 16.445-7.221 18.501z" fill="#F4BA45"/><path d="M65.679 26.21s-.344-7.538 7.909-9.251c8.253-1.713 15.13 1.199 17.709 8.565 2.579 7.366-2.58 18.33-9.285 18.843-6.705.514-15.645-10.278-16.333-18.158z" fill="#5FB1AF"/><path d="M114.851 32.547s1.204-9.764 11.863-8.736c7.737.685 17.882 12.334 18.225 18.672.344 6.338-12.035 13.19-18.912 13.704-7.049.343-12.723-11.648-11.176-23.64z" fill="#D62766"/><path d="M150.441 68.864s5.502-2.57 10.831 5.31c5.33 7.88 6.362 15.589 2.923 22.784-3.438 7.023-11.691 13.019-17.709 8.051-6.017-4.968.516-15.931-1.031-20.556-1.548-4.797-1.548-13.362 4.986-15.59z" fill="#184F5B"/><path d="M132.044 131.561s1.891-9.079 9.285-9.593c7.221-.514 15.989 14.047 13.582 18.844-2.407 4.796-14.27 12.162-21.663 12.676-7.393.343-10.488-12.334-1.204-21.927z" fill="#1F1F20"/><path opacity=".1" d="M112.788 73.832c-.172-.172-.172-.343-.344-.514l-.172-.171v.17c-.516-.513-.688 1.029-2.579 3.084-3.783 4.283-10.832 2.056-19.085 4.797-8.424 2.57-8.94 17.987-8.94 17.987l-8.425 6.338s-40.92 20.728-68.085 76.23c-1.204 2.57 1.547 5.311 4.126 4.112 11.691-5.653 30.776-17.473 49.86-41.113 13.927-17.302 22.352-30.492 22.352-30.492.344-.686 6.533-8.566 6.533-8.566s9.113 1.885 18.569-7.537 7.393-21.927 6.19-24.325z" fill="#1F1F20"/><path d="M68.43 99.527S27.51 120.255.344 175.758c-1.203 2.569 1.547 5.31 4.126 4.111 11.692-5.653 30.776-17.473 49.861-41.113 13.927-17.302 22.351-30.492 22.351-30.492l-8.252-8.737z" fill="#1F1F20"/><path d="M76.855 93.018s.515-15.418 8.94-17.987c8.425-2.57 15.474-.343 19.085-4.797 2.235-2.57 2.063-4.282 2.922-2.57 1.204 2.57 3.267 14.904-6.017 24.326-9.456 9.422-18.569 7.537-18.569 7.537l-6.361-6.51z" fill="#C57727"/><path d="M76.854 93.018l6.534 6.51s-6.19 7.879-6.534 8.565l-8.424-8.566 8.424-6.51z" fill="#5FB1AF"/><path opacity=".1" d="M83.216 99.527s9.112 1.884 18.569-7.537c9.456-9.422 7.393-21.756 6.017-24.325l-.344-.686s.86 3.769-2.407 9.593c-2.922 5.31-15.474 17.13-24.93 19.872l3.095 3.083z" fill="#1F1F20"/></g><defs><clipPath id="clip0"><path fill="#fff" d="M0 0h185v197H0z"/></clipPath></defs></svg>
